www/assets/icons/desktop_mac.svg

<svg xmlns="http://www.w3.org/2000/svg" width="24" height="24" viewBox="0 0 24 24" fill='currentColor'><path d="M20 3H4c-1.1 0-2 .9-2 2v11c0 1.1.9 2 2 2h6l-2 2v1h8v-1l-2-2h6c1.1 0 2-.9 2-2V5c0-1.1-.9-2-2-2"/></svg>

<svg width="24" height="24" viewBox="0 0 24 24" xmlns="http://www.w3.org/2000/svg" fill='currentColor'><path d="M20 3H4C2.9 3 2 3.9 2 5V16C2 17.1 2.9 18 4 18H10L8 20V21H16V20L14 18H20C21.1 18 22 17.1 22 16V5C22 3.9 21.1 3 20 3Z"/></svg>
